X: 1
T: Farewell To Glasgow
M: 3/4
L: 1/8
R: waltz
K: Edor
B2|e4 B2|d4 ed|B3A G2|d4 ed|
B3A G2|E4 D2|E6-|E4||
B2|E4 E2|G3 AB2|d4 de|B4 Bd|
e4 ef|e3 dB2|d6-|d4||
B2|E4 E2|G3 AB2|d4 ed|B4 gf|
e4 ef|e3 dB2|d6-|d4||
Bd|e4 B2|d4 ed|B3A G2|d4 de|
B3A G2|E4 D2|E6-|E4||
